!!!COM: Bach, Johann Sebastian
!!!OTL@@DE: 281. Wo soll ich fliehen hin
!!!OTL@EN: Whither am I to flee?
!!!SCA: BWV 89.6
**harm	**root	**kern	**kern	**kern	**kern
*staff2	*	*staff2	*staff2	*staff1	*staff1
*Iorgan	*Iorgan	*Iorgan	*Iorgan	*Iorgan	*Iorgan
!	!	!bass	!tenor	!alto	!sprno
*	*	*clefF4	*clefF4	*clefG2	*clefG2
*k[]	*k[]	*k[]	*k[]	*k[]	*k[]
*a:	*a:	*a:	*a:	*a:	*a:
*met(c)	*met(c)	*met(c)	*met(c)	*met(c)	*met(c)
*M4/4	*M4/4	*M4/4	*M4/4	*M4/4	*M4/4
*MM60	*MM60	*MM60	*MM60	*MM60	*MM60
i	4GG	4AA	4c	4e	4a
=1	=1	=1	=1	=1	=1
i	4GG	4A	4c	4e	4a
V	4DD	4G#	4B	4e	4b
i	4GG	4A	8AL	4e	4cc
.	.	.	8cJ	.	.
ivb	4CC	4F	4f	4a	4dd
=2	=2	=2	=2	=2	=2
V;	2.DD;	2.E;	2.B;	2.g#;	2.ee;
V7c	4DD	4D	4B	4g#	4ee
=3	=3	=3	=3	=3	=3
ib	4GG	4C	4c	4a	4ee
viiob	4FF#	4BB	4d	8aL	4dd
.	.	.	.	8g#J	.
i	4GG	4AA	4e	4a	4cc
iiob	4AA	4D	4f	4b	4dd
=4	=4	=4	=4	=4	=4
V;	2.DD;	2.E;	2.e;	2.g;	2.b#;
*C:	*C:	*C:	*C:	*C:	*C:
V/VI	4DD	4E	4e	4g	4b#
=5	=5	=5	=5	=5	=5
vi	4GG	4A	4e	4a	4cc
V	4FF	4G	4g	4b	4dd
I	4BB-	8cL	4g	4cc	4ee
.	.	8B	.	.	.
vi	4GG	8A	4a	4cc	4ee
.	.	8GJ	.	.	.
=6	=6	=6	=6	=6	=6
iv7b	4EE-	4F	4a	4cc	2dd
V	4FF	4G	4g	4b	.
I;	4BB-;	4C;	4g;	4cc;	4ee;
Vb/VI	4DD	4G#	4e	4b	4ee
=7	=7	=7	=7	=7	=7
!!linebreak: 2
vi	4GG	(4A	4e	4a	4cc
V	4FF	8GL	4g	8bL	4dd
.	.	8FJ)	.	8aJ	.
Ib	4BB-	8EL	4c	4g	4ee
.	.	8D	.	.	.
I	4BB-	8C	4c	4g	4ee
.	.	8EJ	.	.	.
=8	=8	=8	=8	=8	=8
ii7	4CC	8FL	4c	4a	2dd
.	.	8DJ	.	.	.
V	4FF	4G	4B	4g	.
I;	4BB-;	4C;	4e;	4g;	4cc;
I	4BB-	4c	4g	4cc	4ee
=9	=9	=9	=9	=9	=9
Vb	4FF	4B	4g	4dd	4gg
I	4BB-	4c	8gL	4cc	4ee
.	.	.	8aJ	.	.
Vb/VI	4DD	4G#	8bL	4b	4ee
.	.	.	8BJ	.	.
vi	4GG	4A	4c	4a	4ee
=10	=10	=10	=10	=10	=10
V7b/V	4CC	4F#	4c	4a	2dd
Vc	8FF	4D	8BL	8gL	.
V/V	8CC	.	8AJ	8f#J	.
V;	4FF;	4G;	4B;	4g;	4dd;
*a:	*a:	*a:	*a:	*a:	*a:
ivb	4CC	4F	4A	4a	4dd
=11	=11	=11	=11	=11	=11
V	4DD	8EL	4B	4g#	4ee
.	.	8DJ	.	.	.
V7c	4DD	8CL	4e	4g#	4dd
.	.	8BBJ	.	.	.
i	4GG	8AAL	4e	4a	4cc
.	.	8GJ	.	.	.
ivb	8CC	8FL	8dL	4a	8ddL
ic	8GG	8EJ	8eJ	.	8ccJ
=12	=12	=12	=12	=12	=12
iio7	4AA	4D	4f	4a	2b
V7	4DD	4E	8eL	4g#	.
.	.	.	8dJ	.	.
I;	4GG;	4AA;	4c#;	4e;	4a;
==	==	==	==	==	==
*-	*-	*-	*-	*-	*-
!!!ENC: Craig Stuart Sapp
!!!END: 2004/12/06/
!!chor2scor: -l 2 -s 0.6 -o %b.pmx
